svgs/meteo_swiss.svg

<svg viewBox="0 0 192 192" xml:space="preserve" style="fill-rule:evenodd;clip-rule:evenodd;stroke-linejoin:round;stroke-miterlimit:2" xmlns="http://www.w3.org/2000/svg"><path d="M44.767 553.18c-11.322 1.702-20.015 11.483-20.015 23.278 0 12.993 10.549 23.542 23.542 23.542h58.041c15.204 0 27.547-12.344 27.547-27.547 0-15.204-12.343-27.548-27.547-27.548-.755 0-1.503.031-2.243.09-4.206-11.858-15.527-20.363-28.821-20.363-16.194 0-29.463 12.617-30.504 28.548Zm5.32 11.874a6 6 0 0 0 6.848-6.88 18.657 18.657 0 0 1-.236-2.97c0-10.251 8.321-18.572 18.572-18.572 9.42 0 17.214 7.026 18.412 16.121a6 6 0 0 0 7.816 4.919 15.498 15.498 0 0 1 4.836-.767c8.581 0 15.547 6.967 15.547 15.548 0 8.58-6.966 15.547-15.547 15.547H48.294c-6.37 0-11.542-5.172-11.542-11.542s5.172-11.542 11.542-11.542c.609 0 1.208.047 1.793.138Zm109.712.934-8.676-8.677a6.005 6.005 0 0 0-8.486 0 6.005 6.005 0 0 0 0 8.486l8.677 8.676a6.002 6.002 0 0 0 8.485 0 6.002 6.002 0 0 0 0-8.485Zm-54.533-41.591c2.821-3.704 7.277-6.099 12.288-6.099 8.52 0 15.436 6.917 15.436 15.436 0 3.232-.994 6.233-2.696 8.713a6.003 6.003 0 0 0 1.553 8.342 6.003 6.003 0 0 0 8.342-1.553 27.303 27.303 0 0 0 4.801-15.502c0-15.142-12.293-27.436-27.436-27.436-8.902 0-16.821 4.247-21.834 10.827a6.003 6.003 0 0 0 1.137 8.409 6.004 6.004 0 0 0 8.409-1.137Zm52.463 14.023H170c3.311 0 6-2.688 6-6 0-3.311-2.689-6-6-6h-12.271c-3.311 0-6 2.689-6 6 0 3.312 2.689 6 6 6Zm-65.812-36.177-8.677-8.677a6.004 6.004 0 0 0-8.485 0 6.005 6.005 0 0 0 0 8.486l8.677 8.676a6.002 6.002 0 0 0 8.485 0 6.002 6.002 0 0 0 0-8.485Zm57.441 6.568 8.677-8.677a6.002 6.002 0 0 0 0-8.485 6.002 6.002 0 0 0-8.485 0l-8.677 8.676a6.005 6.005 0 0 0 0 8.486 6.004 6.004 0 0 0 8.485 0Zm-28.003-15.089v-12.27c0-3.312-2.688-6-6-6-3.311 0-6 2.688-6 6v12.27c0 3.312 2.689 6 6 6 3.312 0 6-2.688 6-6ZM41.144 440c-7.008 0-14.017 1.18-21.024 3.493a6 6 0 0 0-4.12 5.698c0 17.158.58 34.982 22.725 44.735a6.006 6.006 0 0 0 4.837 0c22.145-9.753 22.725-27.577 22.725-44.735a6 6 0 0 0-4.12-5.698C55.16 441.18 48.151 440 41.144 440Zm0 12c4.383 0 8.766.574 13.149 1.687-.042 10.69-.965 21.523-13.149 28.079-12.185-6.555-13.107-17.389-13.15-28.079 4.384-1.113 8.766-1.687 13.15-1.687Z" style="fill-rule:evenodd;clip-rule:evenodd;stroke-linejoin:round;stroke-miterlimit:2" transform="translate(0 -424)"/></svg>

<?xml version="1.0" encoding="UTF-8" standalone="no"?>
<svg
   width="100%"
   height="100%"
   viewBox="0 0 192 192"
   version="1.1"
   xml:space="preserve"
   style="fill-rule:evenodd;clip-rule:evenodd;stroke-linejoin:round;stroke-miterlimit:2;"
   id="svg10"
   sodipodi:docname="meteo_swiss.svg"
   inkscape:version="1.2.1 (9c6d41e410, 2022-07-14)"
   xmlns:inkscape="http://www.inkscape.org/namespaces/inkscape"
   xmlns:sodipodi="http://sodipodi.sourceforge.net/DTD/sodipodi-0.dtd"
   xmlns="http://www.w3.org/2000/svg"
   xmlns:svg="http://www.w3.org/2000/svg"><defs
   id="defs14" /><sodipodi:namedview
   id="namedview12"
   pagecolor="#ffffff"
   bordercolor="#000000"
   borderopacity="0.25"
   inkscape:showpageshadow="2"
   inkscape:pageopacity="0.0"
   inkscape:pagecheckerboard="0"
   inkscape:deskcolor="#d1d1d1"
   showgrid="false"
   inkscape:zoom="5.3489583"
   inkscape:cx="96"
   inkscape:cy="95.906524"
   inkscape:window-width="1274"
   inkscape:window-height="1303"
   inkscape:window-x="1282"
   inkscape:window-y="36"
   inkscape:window-maximized="0"
   inkscape:current-layer="svg10" />
    <path
   d="M44.767,553.18C33.445,554.882 24.752,564.663 24.752,576.458C24.752,589.451 35.301,600 48.294,600L106.335,600C121.539,600 133.882,587.656 133.882,572.453C133.882,557.249 121.539,544.905 106.335,544.905C105.58,544.905 104.832,544.936 104.092,544.995C99.886,533.137 88.565,524.632 75.271,524.632C59.077,524.632 45.808,537.249 44.767,553.18ZM50.087,565.054C51.984,565.35 53.909,564.72 55.263,563.358C56.618,561.997 57.239,560.07 56.935,558.174C56.779,557.206 56.699,556.214 56.699,555.204C56.699,544.953 65.02,536.632 75.271,536.632C84.691,536.632 92.485,543.658 93.683,552.753C93.916,554.523 94.925,556.097 96.436,557.048C97.947,557.999 99.803,558.228 101.499,557.672C103.021,557.173 104.647,556.905 106.335,556.905C114.916,556.905 121.882,563.872 121.882,572.453C121.882,581.033 114.916,588 106.335,588L48.294,588C41.924,588 36.752,582.828 36.752,576.458C36.752,570.088 41.924,564.916 48.294,564.916C48.903,564.916 49.502,564.963 50.087,565.054ZM159.799,565.988L151.123,557.311C148.781,554.97 144.979,554.97 142.637,557.311C140.296,559.653 140.296,563.455 142.637,565.797L151.314,574.473C153.655,576.815 157.458,576.815 159.799,574.473C162.141,572.132 162.141,568.33 159.799,565.988ZM105.266,524.397C108.087,520.693 112.543,518.298 117.554,518.298C126.074,518.298 132.99,525.215 132.99,533.734C132.99,536.966 131.996,539.967 130.294,542.447C128.421,545.177 129.116,548.915 131.847,550.789C134.577,552.662 138.315,551.967 140.189,549.236C143.217,544.824 144.99,539.485 144.99,533.734C144.99,518.592 132.697,506.298 117.554,506.298C108.652,506.298 100.733,510.545 95.72,517.125C93.713,519.759 94.223,523.527 96.857,525.534C99.491,527.54 103.259,527.031 105.266,524.397ZM157.729,538.42L170,538.42C173.311,538.42 176,535.732 176,532.42C176,529.109 173.311,526.42 170,526.42L157.729,526.42C154.418,526.42 151.729,529.109 151.729,532.42C151.729,535.732 154.418,538.42 157.729,538.42ZM91.917,502.243L83.24,493.566C80.899,491.225 77.097,491.225 74.755,493.566C72.414,495.908 72.414,499.71 74.755,502.052L83.432,510.728C85.773,513.07 89.575,513.07 91.917,510.728C94.259,508.387 94.259,504.585 91.917,502.243ZM149.358,508.811L158.035,500.134C160.377,497.792 160.377,493.99 158.035,491.649C155.694,489.307 151.891,489.307 149.55,491.649L140.873,500.325C138.532,502.667 138.532,506.469 140.873,508.811C143.215,511.152 147.017,511.152 149.358,508.811ZM121.355,493.722L121.355,481.452C121.355,478.14 118.667,475.452 115.355,475.452C112.044,475.452 109.355,478.14 109.355,481.452L109.355,493.722C109.355,497.034 112.044,499.722 115.355,499.722C118.667,499.722 121.355,497.034 121.355,493.722ZM41.144,440C34.136,440 27.127,441.18 20.12,443.493C17.661,444.304 16,446.601 16,449.191C16,466.349 16.58,484.173 38.725,493.926C40.266,494.604 42.021,494.604 43.562,493.926C65.707,484.173 66.287,466.349 66.287,449.191C66.287,446.601 64.626,444.304 62.167,443.493C55.16,441.18 48.151,440 41.144,440ZM41.144,452C45.527,452 49.91,452.574 54.293,453.687C54.251,464.377 53.328,475.21 41.144,481.766C28.959,475.211 28.037,464.377 27.994,453.687C32.378,452.574 36.76,452 41.144,452Z"
   id="path4"
   style="fill-rule:evenodd;clip-rule:evenodd;stroke-linejoin:round;stroke-miterlimit:2"
   transform="translate(0,-424)"
   inkscape:label="MeteoSwiss-Form" />
</svg>
